X:1
T:Song of the Fishes
M:3/4
L:1/4
K:F
 C| F3/2 G/2 F| D C C| B c d| c2 G| A3/2 G/2 F| D D D| G A G| G2 C|\
 F3/2 G/2 F| D C C| B c d| c- A G| A- F F/2F/2| D C C| D F E| F2||\


